src/assets/icons/weeks,simple,45.svg

<svg width="48" height="48" viewBox="0 0 48 48" fill="none" xmlns="http://www.w3.org/2000/svg">
<rect opacity="0.2" x="5" y="5" width="38" height="38" rx="4" fill="black"/>
<path d="M5 13C5 9.22876 5 7.34315 6.17157 6.17157C7.34315 5 9.22876 5 13 5H35C38.7712 5 40.6569 5 41.8284 6.17157C43 7.34315 43 9.22876 43 13V15H5V13Z" fill="black"/>
<path d="M9.28338 34.9318H17.6612V38H21.1896V34.9318H23.3544V31.9744H21.1896V20.5455H16.5703L9.28338 32.0256V34.9318ZM17.7294 31.9744H12.9993V31.8381L17.593 24.5682H17.7294V31.9744ZM32.1882 38.2386C36.0746 38.2386 38.7166 35.7074 38.7081 32.179C38.7166 28.8381 36.3814 26.4347 33.2365 26.4347C31.7024 26.4347 30.3814 27.0739 29.7678 27.9347H29.6655L30.1172 23.5625H37.745V20.5455H27.0746L26.2479 29.75L29.5291 30.3381C30.0661 29.6136 31.1058 29.1619 32.1371 29.1619C33.8928 29.1705 35.1541 30.4403 35.1541 32.2727C35.1541 34.0881 33.9183 35.3409 32.1882 35.3409C30.7223 35.3409 29.5376 34.4205 29.4524 33.0653H25.8729C25.9411 36.0824 28.5746 38.2386 32.1882 38.2386Z" fill="black"/>
</svg>

<svg xmlns="http://www.w3.org/2000/svg" width="48" height="48" fill="none" viewBox="0 0 48 48">
  <rect width="38" height="38" x="5" y="5" fill="#000" opacity=".2" rx="4"/>
  <path fill="#000" d="M5 13c0-3.771 0-5.657 1.172-6.828C7.343 5 9.229 5 13 5h22c3.771 0 5.657 0 6.828 1.172C43 7.343 43 9.229 43 13v2H5v-2zM9.283 34.932h8.378V38h3.529v-3.068h2.164v-2.958H21.19V20.546h-4.62l-7.287 11.48v2.906zm8.446-2.958H13v-.136l4.594-7.27h.136v7.406zm14.46 6.265c3.886 0 6.528-2.532 6.52-6.06.008-3.34-2.328-5.744-5.473-5.744-1.534 0-2.855.639-3.468 1.5h-.102l.451-4.372h7.628v-3.017h-10.67l-.827 9.204 3.281.588c.537-.724 1.577-1.176 2.608-1.176 1.756.009 3.017 1.278 3.017 3.11 0 1.816-1.236 3.069-2.966 3.069-1.466 0-2.65-.92-2.736-2.276h-3.58c.07 3.017 2.703 5.174 6.316 5.174z"/>
</svg>
